X:1
T:Hai, Lucia, bona cosa
T:Orlando di Lasso
T:Hai, Lucia, bona cosa
C:Orlando di Lasso
%%score [ 1 2 3 4 ]
L:1/8
Q:1/4=200
M:2/2
K:F
V:1 treble nm="Soprano" snm="S"
V:2 treble nm="Alto" snm="A"
V:3 treble-8 nm="Tenor" snm="T"
V:4 bass nm="Bass" snm="B"
V:1
 z4 c4- | c2 c2 A4 | F4 f4- | f2 f2 d4 | B8 | A6 G2 | ^F4 G4 | A6 B2 | A4 c4 | B2 A2 G4 | A8 | %11
w: Hai,|_ Lu- ci-|a, Hai,|_ Lu- ci-|a,|bo- na|co- sa,|bo- na|co- sa~io|dice a ti-|a:|
 z4 d2 d2 | d4 d4 | c4 B4 | A4 A4 |[M:3/2] D8 E4 | F8 F4 | E8 D4 | E8 E4 | D8 E4 | F8 F4 | G8 B4 | %22
w: che pa-|tro- na|fat- ta|fran- ca|Et vò|bel- la|ma- ri-|ta- re,|Et vò|bel- la|ma- ri-|
 A8 G4 |[M:2/2] ^F6 G2 | E4 E4 | ^F6 G2 | E4 E2 E2 | ^F2 G4 F2 | G8 |[M:3/2] E8 E4 | A8 G4 | %31
w: ta- re;|Gior- gia|tu- a,|Gior- gia|tu- a vò|pi- glia- *|re,|tut- ta|ne- gra,|
 B8 A4 | c8 c4 | d8 c4 | =B8 c4 |[M:2/2] A6 G2 | ^F4 G4 | E6 D2 | E4 F2 B2 | A2 B4 A2 | %40
w: tut- ta|ne- gra|V'in- vi-|ta- re,|not- t'e|gior- no,|not- t'e|gior- no von-|no so- na-|
 B2 B2 BBBB | B2 A2 AAAA | A2 G2 GGGG | G2 A2 AAAA | c2 A2 A4- | A4 G4 | G6 G2 | A4 B4 | c2 B2 B4 | %49
w: re tam- bi- li- li- li-|li, tam- bi- li- li- li-|li, tam- bi- li- li- li-|li, tam- bi- li- li- li-|li. Lu- ci-|* a,|poi che|Di- o|v'au' a- giu-|
 A8 |[M:3/2] d8 c4 | B8 A4 | d8 c4 | B8 A4 | B8 A4 | G8 ^F4 |[M:2/2] G6 A2 | B4 A4 | A4 G4- | %59
w: ta|gen- te|ne- gra,|gen- te|ne- gra,|vol can-|ta- re;|co- re|mi, a-|scol- ta-|
 G2 ^FE F4 | G4 z2 G2 | A2 A4 G2 | A2 G2 F4 | E8 |[M:3/2] ^F8 G4 | A8 A4 | B8 B4 | B8 A4 | G8 G4 | %69
w: |re, a-|pri bocc' et|non dor- mi-|re,|gen- te|ne- gra,|gen- te|ne- gra,|vol can-|
 ^F8 F4 |[M:2/2] z2 B2 B2 B2 | A4 F2 B2 | B2 B2 A2 G2- | G2 ^F2 G2 D2 | E2 E2 F4 | G2 G2 ^F2 F2 | %76
w: ta- re;|Ac- qua ma-|don- na, Ac-|qua ma- don- na~al|_ fuo- co, che|ar- do tut-|ta, che ar- do|
 G4 B4 | A4 G4 | ^F2 G2 G2 F2 | G8 | E4 E2 E2 | G4 ^F4 | z2 B2 B2 B2 | d2 c2 =B4 | c4 A2 A2 | %85
w: tut- ta,|Et tu|pi- glia- t'a gio-|co,|jo gri- do|sem- pre,|jo gri- do|sem- pre, hai-|me, et tu|
 G2 G4 ^F2 | G2 G2 B2 B2 | F3 G A4- | A4 G4 | G4 F2 B2- | B2 A2 B2 B2 | A2 F2 A2 A2 | G4 ^F2 F2 | %93
w: non sen- tu-|ta et vo- ce|mi- a tut-|* to|fat- ta ro-|* * ca, Ac-|qua ma- don- n'al|fo- co, Ac-|
 G4 F2 D2 | E2 F4 E2 | F4 E4 | F2 F2 E2 F2 | F2 F2 F4 | z2 A2 G2 EE | A2 ^FF G2 AA | G2 EE G2 GG | %101
w: qua ma- don-|n'al fo- *|co, che|ci mi- ne- ra,|ar- d'e mo|fu- iu- ta, fu-|iu- ta, fu- iu- ta, fu-|iu- ta, fu- iu- ta, fu-|
 A2 A2 z2 A2 | G2 EE F2 FF | G2 GG G2 GG | F2 FB A2 G2- | G2 ^F2 G4 | z2 E2 F2 F2 | E2 F2 F2 F2 | %108
w: iu- ta, fu-|iu- ta, fu- iu- ta, fu-|iu- ta, fu- iu- ta, fu-|iu- ta, fu- iu- ta|_ co- cha,|che ci mi-|ne- ra, ar- d'e|
 F4 z2 A2 | G2 EE A2 ^FF | G2 AA G2 EE | G2 GG A2 A2 | z2 A2 G2 EE | F2 FF G2 GG | G2 GG F2 FB | %115
w: mo fu-|iu- ta, fu- iu- ta, fu-|iu- ta, fu- iu- ta, fu-|iu- ta, fu- iu- ta,|fu- iu- ta, fu-|iu- ta, fu- iu- ta, fu-|iu- ta, fu- iu- ta, fu-|
 A2 G4 ^F2 | G8 |] %117
w: iu- ta co-|cha.|
V:2
 z8 | z4 F4- | F2 F2 D4 | B,2 F4 F2 | G4 G4 | F6 E2 | D4 E4 | F6 F2 | F4 F4 | F2 F2 D4 | F8 | %11
w: |Hai,|_ Lu- ci-|a, Hai, Lu-|ci- a,|bo- na|co- sa,|bo- na|co- sa~io|dice a ti-|a:|
 z4 F2 F2 | F4 F4 | E4 G4 | ^F4 F4 |[M:3/2] G8 G4 | C8 D4 | C8 A,4 | C8 C4 | =B,8 C4 | D8 C4 | %21
w: che pa-|tro- na|fat- ta|fran- ca|Et vò|bel- la|ma- ri-|ta- re,|Et vò|bel- la|
 _E8 D4 | F8 E4 |[M:2/2] D6 D2 | ^C4 C4 | D6 D2 | ^C4 C4 | D2 D2 D4 | =B,8 |[M:3/2] C8 C4 | C8 C4 | %31
w: ma- ri-|ta- re;|Gior- gia|tu- a,|Gior- gia|tu- a|vò pi- glia-|re,|tut- ta|ne- gra,|
 D8 D4 | E8 F4 | F8 E4 | G8 E4 |[M:2/2] D6 B,2 | D4 =B,4 | C6 A,2 | C4 D2 F2 | F2 D2 F4 | %40
w: tut- ta|ne- gra|V'in- vi-|ta- re,|not- t'e|gior- no,|not- t'e|gior- no von-|no so- na-|
 F2 F2 FFFF | F2 F2 FFFF | F2 E2 EEEE | E2 F2 EEEE | A2 F2 F4- | F4 E4 | D6 D2 | F6 F2 | F2 F2 G4 | %49
w: re tam- bi- li- li- li-|li, tam- bi- li- li- li-|li, tam- bi- li- li- li-|li, tam- bi- li- li- li-|li. Lu- ci-|* a,|poi che|Di- o|v'au' a- giu-|
 F8 |[M:3/2] F8 F4 | D8 F4 | F8 F4 | D8 F4 | F8 F4 | D8 D4 |[M:2/2] E6 F2 | F4 F4- | F4 _E4 | D8 | %60
w: ta|gen- te|ne- gra,|gen- te|ne- gra,|vol can-|ta- re;|co- re|mi, a-|* scol-|ta-|
 D4 z2 D2 | F2 F4 E2 | F2 E2 D4 | ^C8 |[M:3/2] D8 D4 | F8 F4 | F8 G4 | F8 F4 | D8 _E4 | D8 D4 | %70
w: re, a-|pri bocc' et|non dor- mi-|re,|gen- te|ne- gra,|gen- te|ne- gra,|vol can-|ta- re;|
[M:2/2] F4 F2 F2 | F4 D2 F2 | F2 F2 F2 D2 | D4 =B,2 B,2 | C2 C2 D4 | D2 D2 D2 D2 | E4 F4 | F4 E4 | %78
w: Ac- qua ma-|don- na, Ac-|qua ma- don- na~al|fuo- co, che|ar- do tut-|ta, che ar- do|tut- ta~Et|tu pi-|
 D2 D2 D4 | =B,8 | C4 C2 C2 | D4 D4 | z2 F2 F2 F2 | G2 G2 G4 | E4 F4 | D2 _E2 D4 | D8 | %87
w: glia- t'a gio-|co,|jo gri- do|sem- pre,|jo gri- do|sem- pre, hai-|me~et tu|non sen- tu-|ta|
 z2 D2 F2 F2 | C3 D _E4 | _E4 D2 F2 | F4 D2 F2 | F2 C2 F2 F2 | D8 | B,2 D2 D2 A,2 | C6 C2 | %95
w: et vo- ce|mi- a tut-|to fat- ta|ro- ca, Ac-|qua ma- don- n'al|fo-|co, Ac- qua ma-|don- n'al|
 A,4 C2 C2 | C2 =B,2 C2 C2 | D4 C2 F,G, | A,B,CD E2 G2 | F2 DD E4 | E2 C2 D2 DD | F4 F2 C2 | %102
w: fo- co, che|ci mi- ne- ra,|ar- d'e mo _|_ _ _ _ _ fu-|iu- ta, fu- iu-|ta, fu- iu- ta, fu-|iu- ta, fu-|
 E2 GG D2 CC | _E2 EE E2 B,B, | D2 DF F2 _E2 | D4 =B,4 | z2 C2 C2 =B,2 | C2 C2 D4 | C2 F,G,A,B,CD | %109
w: iu- ta, fu- iu- ta, fu-|iu- ta, fu- iu- ta, fu-|iu- ta, fu- iu- ta|co- cha,|che ci mi-|ne- ra, ar-|d'e mo _ _ _ _ _|
 E2 G2 F2 DD | E4 E2 C2 | D2 DD F4 | F2 C2 E2 GG | D2 CC _E2 EE | _E2 B,B, D2 DF | F2 _E2 D4 | %116
w: _ fu- iu- ta, fu-|iu- ta, fu-|iu- ta, fu- iu-|ta, fu- iu- ta, fu-|iu- ta, fu- iu- ta, fu-|iu- ta, fu- iu- ta, fu-|iu- ta co-|
 D8 |] %117
w: cha.|
V:3
 c6 c2 | A4 F4 | f6 f2 | d4 B2 d2- | d2 d2 _e4 | c2 c4 c2 | A4 c4 | c6 d2 | c4 A4 | d2 c2 =B4 | %10
w: Hai, Lu-|ci- a,|Hai, Lu-|ci- a, Hai,|_ Lu- ci-|a, bo- na|co- sa,|bo- na|co- sa~io|dice a ti-|
 c8 | z4 B2 B2 | B4 B4 | G4 d4 | d4 d4 |[M:3/2] =B8 c4 | A8 B4 | G8 ^F4 | G8 G4 | G8 G4 | B8 A4 | %21
w: a:|che pa-|tro- na|fat- ta|fran- ca|Et vò|bel- la|ma- ri-|ta- re,|Et vò|bel- la|
 B8 B4 | c8 c4 |[M:2/2] A6 B2 | A4 A4 | A6 B2 | A4 A4 | A2 B2 A4 | d8 |[M:3/2] G8 e4 | F8 E4 | %31
w: ma- ri-|ta- re;|Gior- gia|tu- a,|Gior- gia|tu- a|vò pi- glia-|re,|tut- ta|ne- gra,|
 F8 F4 | G8 A4 | B8 G4 | d8 G4 |[M:2/2] F6 G2 | A4 G4 | G6 F2 | G4 B2 d2 | c2 B2 c4 | d2 d2 dddd | %41
w: tut- ta|ne- gra|V'in- vi-|ta- re,|not- t'e|gior- no,|not- t'e|gior- no von-|no so- na-|re tam- bi- li- li- li-|
 d2 c2 cccc | c2 c2 cccc | c2 c2 cccc | f2 c2 d4 | c8 | =B6 B2 | c4 d4 | c2 d2 _e4 | c8 | %50
w: li, tam- bi- li- li- li-|li, tam- bi- li- li- li-|li, tam- bi- li- li- li-|li. Lu- ci-|a,|poi che|Di- o|v'au' a- giu-|ta|
[M:3/2] B8 A4 | B8 c4 | B8 A4 | B8 c4 | d8 c4 | B8 A4 |[M:2/2] c6 c2 | d4 c4- | c4 c4 | A8 | %60
w: gen- te|ne- gra,|gen- te|ne- gra,|vol can-|ta- re;|co- re|mi, a-|* scol-|ta-|
 =B4 z2 B2 | c2 c4 c2 | c2 c2 A4 | A8 |[M:3/2] A8 B4 | c8 c4 | d8 _e4 | d8 c4 | =B8 c4 | A8 A4 | %70
w: re, a-|pri bocc' et|non dor- mi-|re,|gen- te|ne- gra,|gen- te|ne- gra,|vol can-|ta- re;|
[M:2/2] d4 d2 d2 | c4 B2 d2 | d2 d2 c2 B2 | A4 G4- | G2 G2 B2 B2 | B4 A2 A2 | c2 c2 d2 d2 | c6 c2 | %78
w: Ac- qua ma-|don- na, Ac-|qua ma- don- na~al|fuo- co,|_ che ar- do|tut- ta, che|ar- do tut- ta~Et|tu pi-|
 A2 B2 A4 | d8 | G4 G2 G2 | B4 A4 | z2 d2 d2 d2 | B2 _e2 d4 | c6 d2 | =B2 c2 A4 | G4 z2 G2 | %87
w: glia- t'a gio-|co,|jo gri- do|sem- pre,|jo gri- do|sem- pre, hai-|me~et tu|non sen- tu-|ta et|
 B2 B2 F3 G | A3 B c2 c2 | B2 c2 A2 d2 | c4 B2 d2 | c2 A2 c2 c2 | B4 A4 | z2 B2 A2 F2 | A2 A2 G4 | %95
w: vo- ce mi- a|tut- to fat- ta|tut- to fat- ta|ro- ca, Ac-|qua ma- don- n'al|fo- co,|Ac- qua ma-|don- n'al fo-|
 F4 z2 G2 | A2 F2 G2 A2 | B2 B2 A2 d2 | c2 AA c4 | F2 A2 c2 cc | c2 GG =B2 B2 | z2 d2 c2 AA | %102
w: co, che|ci mi- ne- ra,|ar- d'e mo fu-|iu- ta, fu- iu-|ta, fu- iu- ta, fu-|iu- ta, fu- iu- ta,|fu- iu- ta, fu-|
 c2 GG B2 A2 | z2 c2 B2 GG | B2 Bd c2 c2 | A4 G4 | z2 G2 A2 F2 | G2 A2 B2 B2 | A2 d2 c2 AA | %109
w: iu- ta, fu- iu- ta,|fu- iu- ta, fu-|iu- ta, fu- iu- ta|co- cha,|che ci mi-|ne- ra, ar- d'e|mo fu- iu- ta, fu-|
 c4 F2 A2 | c2 cc c2 GG | =B2 B2 z2 d2 | c2 AA c2 GG | B2 A2 z2 c2 | B2 GG B2 Bd | c2 c2 A4 | %116
w: iu- ta, fu-|iu- ta, fu- iu- ta, fu-|iu- ta, fu-|iu- ta, fu- iu- ta, fu-|iu- ta, fu-|iu- ta, fu- iu- ta, fu-|iu- ta co-|
 =B8 |] %117
w: cha.|
V:4
 z8 | F,6 F,2 | D,4 B,,4 | B,6 B,2 | G,4 _E,4 | F,6 B,,2 | D,4 C,4 | F,6 B,,2 | F,4 F,4 | %9
w: |Hai, Lu-|ci- a,|Hai, Lu-|ci- a,|bo- na|co- sa,|bo- na|co- sa~io|
 B,2 F,2 G,4 | F,8 | z4 B,,2 B,,2 | B,,4 B,,4 | C,4 G,,4 | D,4 D,4 |[M:3/2] G,8 C,4 | F,8 B,,4 | %17
w: dice a ti-|a:|che pa-|tro- na|fat- ta|fran- ca|Et vò|bel- la|
 C,8 D,4 | C,8 C,4 | G,,8 C,4 | B,,8 F,4 | _E,8 G,4 | F,8 C,4 |[M:2/2] D,6 G,,2 | A,,4 A,,4 | %25
w: ma- ri-|ta- re,|Et vò|bel- la|ma- ri-|ta- re;|Gior- gia|tu- a,|
 D,6 G,,2 | A,,4 A,,4 | D,2 G,,2 D,4 | G,,8 |[M:3/2] C,8 C,4 | F,,8 C,4 | B,,8 D,4 | C,8 F,4 | %33
w: Gior- gia|tu- a|vò pi- glia-|re,|tut- ta|ne- gra,|tut- ta|ne- gra|
 B,,8 C,4 | G,,8 C,4 |[M:2/2] D,6 _E,2 | D,4 G,,4 | C,6 D,2 | C,4 B,,2 B,,2 | F,2 G,2 F,4 | %40
w: V'in- vi-|ta- re,|not- t'e|gior- no,|not- t'e|gior- no von-|no so- na-|
 B,,2 B,2 B,B,B,B, | B,2 F,2 F,F,F,F, | F,2 C,2 C,C,C,C, | C,2 F,2 A,A,A,A, | F,4 z2 D,2 | %45
w: re tam- bi- li- li- li-|li, tam- bi- li- li- li-|li, tam- bi- li- li- li-|li, tam- bi- li- li- li-|li. Lu-|
 F,4 C,4 | G,6 G,2 | F,4 B,4 | A,2 B,2 _E,4 | F,8 |[M:3/2] B,,8 F,4 | G,8 F,4 | B,,8 F,4 | %53
w: ci- a,|poi che|Di- o|v'au' a- giu-|ta|gen- te|ne- gra,|gen- te|
 G,8 F,4 | B,,8 F,4 | G,8 D,4 |[M:2/2] C,6 F,2 | B,,4 F,4- | F,4 C,4 | D,8 | G,,4 z2 G,2 | %61
w: ne- gra,|vol can-|ta- re;|co- re|mi, a-|* scol-|ta-|re, a-|
 F,2 F,4 C,2 | F,2 C,2 D,4 | A,,8 |[M:3/2] D,8 G,4 | F,8 F,4 | B,8 _E,4 | B,8 F,4 | G,8 C,4 | %69
w: pri bocc' et|non dor- mi-|re,|gen- te|ne- gra,|gen- te|ne- gra,|vol can-|
 D,8 D,4 |[M:2/2] B,,4 B,,2 B,,2 | F,4 B,,2 B,,2 | B,,2 B,,2 F,2 G,2 | D,4 G,,2 G,,2 | %74
w: ta- re;|Ac- qua ma-|don- na, Ac-|qua ma- don- na~al|fuo- co, che|
 C,2 C,2 B,,4 | G,,2 G,,2 D,2 D,2 | C,4 B,,4 | F,4 C,4 | D,2 G,,2 D,4 | G,,8 | C,4 C,2 C,2 | %81
w: ar- do tut-|ta, che ar- do|tut- ta~Et|tu pi-|glia- t'a gio-|co,|jo gri- do|
 G,,4 D,4 | z2 B,,2 B,2 B,2 | G,2 C,2 G,4 | A,4 F,4 | G,2 C,2 D,4 | G,,8 | z4 z2 D,2 | %88
w: sem- pre,|jo gri- do|sem- pre, hai-|me~et tu|non sen- tu-|ta|et|
 F,2 F,2 C,3 D, | _E,2 C,2 D,2 B,,2 | F,4 B,,4 | F,4 F,2 F,2 | G,2 G,,2 D,4 | G,,4 D,4 | %94
w: vo- ce mi- a|tut- to fat- ta|ro- ca,|Ac- qua ma-|don- n'al fo-|co, Ac-|
 A,,2 F,,2 C,2 C,2 | D,4 C,2 C,2 | F,2 D,2 C,2 F,2 | B,,2 B,,2 F,2 D,2 | F,4 C,4 | %99
w: qua ma- don- n'al|fo- co, che|ci mi- ne- ra,|ar- d'e mo fu-|iu- ta,|
 z2 D,2 C,2 A,,A,, | C,4 G,,2 G,2 | F,2 D,D, F,4 | C,4 z2 F,2 | _E,2 C,C, E,2 E,E, | %104
w: fu- iu- ta, fu-|iu- ta, fu-|iu- ta, fu- iu-|ta, fu-|iu- ta, fu- iu- ta, fu-|
 B,,2 B,,B,, F,2 C,2 | D,4 G,,4 | z2 C,2 F,2 D,2 | C,2 F,2 B,,2 B,,2 | F,2 D,2 F,4 | C,4 z2 D,2 | %110
w: iu- ta, fu- iu- ta|co- cha,|che ci mi-|ne- ra, ar- d'e|mo fu- iu-|ta, fu-|
 C,2 A,,A,, C,4 | G,,2 G,2 F,2 D,D, | F,4 C,4 | z2 F,2 _E,2 C,C, | _E,2 E,E, B,,2 B,,B,, | %115
w: iu- ta, fu- iu-|ta, fu- iu- ta, fu-|iu- ta,|fu- iu- ta, fu-|iu- ta, fu- iu- ta, fu-|
 F,2 C,2 D,4 | G,,8 |] %117
w: iu- ta co-|cha.|

